svgs/regular/scribble.svg

<svg xmlns="http://www.w3.org/2000/svg" viewBox="0 0 512 512"><!--! Font Awesome Pro 6.2.0 by @fontawesome - https://fontawesome.com License - https://fontawesome.com/license (Commercial License) Copyright 2022 Fonticons, Inc. --><path d="M183.3 21.45C198.3 7.652 217.1 0 238.4 0H239.4C283.9 0 320 36.07 320 80.57C320 101.9 311.5 122.4 296.4 137.5L89.54 344.4C83.43 350.5 80 358.8 80 367.4C80 385.4 94.58 400 112.6 400C121.2 400 129.5 396.6 135.6 390.5L374.5 151.6C389.6 136.5 410.1 128 431.4 128C475.9 128 512 164.1 512 208.6C512 229.9 503.5 250.4 488.4 265.5L384.2 369.8C373.8 380.1 368 394.2 368 408.8C368 439.3 392.7 464 423.2 464H427.6C433.2 464 438.8 463.1 444.2 461.3L480.4 449.2C492.1 445 506.6 451.8 510.8 464.4C514.1 476.1 508.2 490.6 495.6 494.8L459.4 506.8C449.1 510.3 438.4 512 427.6 512H423.2C366.2 512 320 465.8 320 408.8C320 381.4 330.9 355.2 350.2 335.8L454.5 231.6C460.6 225.5 464 217.2 464 208.6C464 190.6 449.4 176 431.4 176C422.8 176 414.5 179.4 408.4 185.5L169.5 424.4C154.4 439.5 133.9 448 112.6 448C68.07 448 32 411.9 32 367.4C32 346.1 40.49 325.6 55.6 310.5L262.5 103.6C268.6 97.49 272 89.21 272 80.57C272 62.58 257.4 48 239.4 48H238.4C229.1 48 221.9 51.15 215.7 56.83L40.22 217.7C30.45 226.6 15.27 225.1 6.308 216.2C-2.648 206.4-1.988 191.3 7.783 182.3L183.3 21.45z"/></svg>

<svg xmlns="http://www.w3.org/2000/svg" viewBox="0 0 512 512"><!--! Font Awesome Pro 6.3.0 by @fontawesome - https://fontawesome.com License - https://fontawesome.com/license (Commercial License) Copyright 2023 Fonticons, Inc. --><path d="M183.3 21.4C198.3 7.7 218 0 238.4 0h1C283.9 0 320 36.1 320 80.6c0 21.4-8.5 41.9-23.6 57L89.5 344.4c-6.1 6.1-9.5 14.4-9.5 23c0 18 14.6 32.6 32.6 32.6c8.6 0 16.9-3.4 23-9.5L374.5 151.6c15.1-15.1 35.6-23.6 57-23.6c44.5 0 80.6 36.1 80.6 80.6c0 21.4-8.5 41.9-23.6 57L384.2 369.8c-10.4 10.3-16.2 24.4-16.2 39c0 30.5 24.7 55.2 55.2 55.2h4.4c5.6 0 11.2-.9 16.6-2.7l36.2-12.1c12.6-4.2 26.2 2.6 30.4 15.2s-2.6 26.2-15.2 30.4l-36.2 12.1c-10.2 3.4-21 5.2-31.8 5.2h-4.4c-57 0-103.2-46.2-103.2-103.2c0-27.4 10.9-53.6 30.2-73L454.5 231.6c6.1-6.1 9.5-14.4 9.5-23c0-18-14.6-32.6-32.6-32.6c-8.6 0-16.9 3.4-23 9.5L169.5 424.4c-15.1 15.1-35.6 23.6-57 23.6C68.1 448 32 411.9 32 367.4c0-21.4 8.5-41.9 23.6-57L262.5 103.6c6.1-6.1 9.5-14.4 9.5-23c0-18-14.6-32.6-32.6-32.6h-1c-8.4 0-16.5 3.2-22.7 8.8L40.2 217.7c-9.8 9-25 8.3-33.9-1.5s-8.3-25 1.5-33.9L183.3 21.4z"/></svg>
